X: 158
M: 6/8
L: 1/8
K: Gmix
[|\
E e e e2 g | d e g dB G |
Ee e e ^f g | dB G A2 E |
E e e e2 g | d e g dB G |
E e e e2 g | dB G (A2 G) |
d e2 g | dB G (A2 G) |]

